X:1
T:Once in Bethlehem of Judah
T:Once in Bethlehem of Judah
T:F. J. Dugard, 1891
T:Cecil Frances Humphreys Alexander, 1883
T:Public Domain Courtesy of the Cyber Hymnal™
T:Public Domain Courtesy of the Cyber Hymnal™
C:F. J. Dugard, 1891
Z:Public Domain
Z:Courtesy of the Cyber Hymnal™
%%score ( 1 2 ) ( 3 4 )
L:1/8
Q:1/4=112
M:4/4
K:F
V:1 treble 
V:2 treble 
V:3 bass 
V:4 bass 
V:1
 d3 (z d) [Fc]2 [FA]2 | [EG]3 [FA] [EG]2 F2 | [CE]2 [CF]2 [CG]2 [CF]2 | [Ec]2 [FA]2 [EG]4 | %4
w: 1.~Once * in Beth-|* le- hem of|Ju- dah, Far a-|way a- cross|
w: 2.~It * was not|* a state- ly|pal- ace Where that|lit- tle ba-|
w: 3.~But * the ox-|* en stood a-|round Him, In a|sta- ble low|
w: 4.~For * He left|* His Fa- ther’s|glo- ry, And the|gold- en halls|
w: 5.~Of * His in-|* fin- ite com-|pas- sion, He can|feel our want|
w: 6.~Still * His child-|* hood’s bright ex-|am- ple Gives a|light to our|
w: 7.~Still * He stands|* and pleads in|Hea- ven, For us,|weak and sin-|
 c3 (z d) [Fc]2 [FA]2 | [EG]3 [FA] [EG]2 F2 | [CE]2 [CF]2 [Cc]2 [FB]2 | [FA]2 [EG]2 F2 || %8
w: the * sea, There|* was laid a|lit- tle ba- by|On a vir-|
w: by * lay, With|* His ser- vants|to at- tend Him,|And with guards|
w: and * dim; In|* the world He|had cre- at- ed|There was not|
w: a- * bove, And|* He took our|hu- man na- ture,|In the great-|
w: and * woe; For|* He suf- fered,|He was tempt- ed,|When He lived|
w: poor * homes; From|* the blood of|His a- ton- ing|Still our hope|
w: de- * filed; God,|* who is a|man for ev- er,|Je- sus, who|
"^Refrain" C2 | [CA]3 [CA] [Fd]2 [Cc]2 | [^CA]4 [DF]4 | E2 [CF]2 [FB]2 [FA]2 | %12
w: gin|mo- ther’s knee. *|||
w: to|keep the way. *|||
w: a|room for Him. *|||
w: ness|of His love. *|||
w: our|life be- low. *|||
w: of|par- don comes. *|||
w: was|once a child. *|||
 [FA]3 [EG] [EG]2 C2 | [CA]3 [CA] [Fd]2 [Cc]2 | [^CA]4 [DF]2 C2 | [Cc]3 [FB] [FA]2 [EG]2 | F6 |] %17
w: |||||
w: |||||
w: |||||
w: |||||
w: |||||
w: |||||
w: |||||
V:2
 F2 F2 x5 | x6 F2 | x8 | x8 | F2 F2 x5 | x6 F2 | x8 | x4 F2 || C2 | x8 | x8 | E2 x6 | x6 C2 | x8 | %14
 x6 ^C2 | x8 | F6 |] %17
V:3
 A,3 (z B,) [F,A,]2 [F,C]2 | [C,C]2 C2 [B,C]2 [A,C]2 | [G,B,]2 [F,A,]2 [E,G,]2 [F,A,]2 | %3
w: ~ * ~ ~|* ~ ~ ~|~ ~ ~ ~|
 [C,G,]2 [C,C]2 [C,C]4 | A,3 (z B,) [F,A,]2 [F,C]2 | [B,,C]2 C2 [B,C]2 [A,C]2 | %6
w: ~ ~ ~|~ * ~ ~|* ~ ~ ~|
 [G,B,]2 [F,A,]2 [F,A,]2 [D,B,]2 | [C,C]2 [C,B,]2 [F,A,]2 || C,2 | F,3 [F,A,] [F,B,]2 [F,A,]2 | %10
w: ~ ~ ~ ~|~ ~ ~|~|~ ~ ~ O|
 (A,2 G,2) [D,A,]4 | [B,C]2 [A,C]2 [D,D]2 [F,C]2 | [F,C]3 [C,C] [C,C]2 C,2 | %13
w: Sav- * ior,|gen- tle Sav- ior,|Hear Thy lov- ing|
 F,3 [F,A,] [F,B,]2 [F,A,]2 | (A,2 G,2) [D,A,]2 [E,G,]2 | [F,A,]3 [D,B,] [C,C]2 [C,B,]2 | %16
w: child- ren sing, The|God * of our|sal- va- tion, The|
 [F,A,]6 |] %17
w: child|
V:4
 F,2 F,2 x5 | x2 C2 x4 | x8 | x8 | F,2 F,2 x5 | x2 C2 x4 | x8 | x6 || C,2 | F,3 x5 | E,4 x4 | x8 | %12
 x6 C,2 | F,3 x5 | E,4 x4 | x8 | x6 |] %17

